X:1
T:Saddle The Pony
R: jig
M:6/8
L:1/8
K:Gmaj
D | "G" GBA G2B |     def gdB | "G"  GBA G2B | "D" AFD AFD |
    "G" GBA G2B | "G" def gfg | "Em" ege dBA | "G" BGG G2 :||
d | "C" efe edB | "G" def gfg | "C"  efe edB | "D" dBA ABd |
    "C" efe edB | "G" def gfg | "Em" ege dBA | "G" BGG G2 :||
